data/zeyada.svg

<svg width="35.984" height="22.066" viewBox="0 0 35.984 22.066" xmlns="http://www.w3.org/2000/svg"><path transform="translate(0 12.77) scale(.013672 -.013672)" d="m175 83q0 36 21 73t53.5 74.5 69.5 75.5 69.5 77.5 53.5 79.5 21 81q0 29-15 44.5t-37.5 22-48.5 7.5-48 1q-18 0-39.5-1t-43.5-4-43.5-8-39.5-12q-2-2-9.5-6t-16.5-8.5-16.5-8-9.5-3.5q-1-1-5-1.5t-9.5-1-11.5-0.5-9 0q-2 0-7 0t-10.5 0.5-10.5 1-7 1.5q-7 2-8 6.5t-1 9.5q0 14 20 24.5t51 18 68.5 13 73 9 63 5 39.5 1.5q31 0 62-5t56-18 41-36 16-60q0-43-21.5-83t-53.5-78-70-75.5-70.5-73.5-53.5-71.5-21-71.5q0-13 1.5-23.5t16.5-16.5q3 0 7 0t9 0 9.5 0 5.5 0q17 0 29 1t22.5 3.5 24 8 34.5 14.5q6 3 21 9.5t34.5 15 40 18 39.5 18 34 16 23 10.5h36q0-6-2.5-10.5t-7.5-7.5l-271-131q-1 0-7.5-1t-15-2.5-16.5-2.5-13-2h-14q-38 0-60 22t-22 61z"/><path transform="translate(8.4629 12.77) scale(.013672 -.013672)" d="m26 125q-7-4-11-2t-5.5 6-2 9.5-0.5 7.5q0 20 5 24.5t13 6 17 4.5 17 19q12 25 21.5 52.5t23.5 51.5 35.5 39 59.5 15q6 0 13.5-1t14-3.5 11-8 4.5-14.5q0-21-10.5-37.5t-26-30-33.5-25.5-33-23-25.5-23-10.5-26v-96q0-11 8.5-17.5t19.5-10.5 23-6 18-2q24 0 48 8.5t46.5 21.5 42.5 28.5 38 29.5q6 5 10.5 10.5t9 10.5 10 8.5 14.5 5.5q0-1 0-4t0-5q0-8-1.5-14t-7.5-12q-22-25-47-47t-53-39-59-27-66-10-54 10-29.5 29-14.5 45-9 56zm129 155q0 2-3.5-0.5t-8-6.5-6.5-7.5 0-3.5q5-1 12 6t6 12z"/><path transform="translate(13.357 12.77) scale(.013672 -.013672)" d="m-55-454q-6 38-10 80t-7 97q0 9 0.5 29.5t2.5 46 6 53 9.5 52 13.5 43 20 26.5v-8q0-30-4.5-59t-9-58.5-9-59.5-4.5-60q0-12 1.5-34.5t4.5-49.5 9-55.5 16-51.5 24-37.5 33-14.5q26 0 52.5 17t51 44.5 45.5 62 39 69.5 30 66.5 18 54.5q6 33 12 69.5t11.5 75 9 76.5 3.5 76q0 1 0 6t-0.5 10.5-0.5 10.5 0 7q-14-15-29.5-33.5t-33.5-34.5-38.5-27-44.5-11q-19 0-32.5 12t-22 29.5-13 37.5-4.5 36q-1 9-2 32.5t-2.5 50-3 50-1.5 33.5l-9 9q-7-4-18-12t-23.5-15-24.5-12.5-21-5.5q-12 0-19.5 8.5t-7.5 18.5q0 5 9.5 14t24 18.5 33 19.5 35.5 18 31 13.5 20 5.5q4 0 13-1t9-9v-236q0-6 2-17.5t6-23.5 11-20.5 16-8.5q5 0 13 3t15.5 7 13.5 8.5 10 8.5q34 30 62.5 67t42.5 81q1 3 3.5 13.5t5 23 5.5 24 3 17.5q1 7 1.5 16t2.5 17.5 7 14.5 16 6q15 0 16.5-9t1.5-21q0-13-2-26t-4.5-25.5-3.5-25 1-25.5q-11-188-46.5-336t-84-249.5-102-153.5-100.5-47q-17 0-33.5 7.5t-30.5 20.5-24.5 28.5-15.5 31.5z"/><path transform="translate(19.059 12.77) scale(.013672 -.013672)" d="m244 122q-15-18-34.5-38t-42-37-47-28.5-50.5-11.5q-53 0-53 51 0 21 17.5 55.5t45.5 72.5 62 73.5 68 59 62.5 29.5 46.5-17q0-27-4-54t-8-53.5-8-52.5-4-53q0-6 1.5-18.5t5-25 9.5-22 16-9.5q24 0 39.5 6t27 14.5 20 19.5 18 22 21.5 21 31 16q0 0 0-3t0-5q0-25-15-49.5t-38-43.5-51.5-30.5-55.5-11.5q-23 0-37 13t-22.5 31-12.5 39.5-8 39.5zm18 131q10 33 7.5 45t-14.5 9.5-31-17-41-35-44-45.5-41-47.5-31-40.5-15-26q-6-23-1.5-35t14-16.5 21-1.5 19.5 9q17 15 43 40.5t50.5 54.5 42.5 57.5 21 48.5z"/><path transform="translate(25.32 12.77) scale(.013672 -.013672)" d="m78 61q-19 0-32 12t-21.5 29-13 36-4.5 33q0 31 11.5 64.5t31 63.5 45 54.5 53.5 38.5q12 6 21.5 6.5t16.5 1 10.5 6 3.5 21.5v167q0 8 9 16.5t17 8.5q5 0 8.5-4.5t5.5-10.5 3-13 1-10q0-113-3-222.5t-3-225.5q8 0 16 3t17 7 17.5 8 16.5 6q0-1 0.5-4t0.5-5q0-14-9.5-22.5t-22-15.5-24-14-15.5-18q-1-2-2-14t-4-27-9-26.5-15-11.5q-14 0-18.5 8t-3.5 19 3.5 21 2.5 14zm-36 110q0-33 21-54.5t54-21.5q7 0 16.5 0t19.5 1.5 18 5.5 12 12q-2 27-0.5 51.5t3.5 49 4 49 2 51.5q0 12-4.5 19t-17.5 7q-27 0-50.5-17.5t-41-44-27-56-9.5-52.5z"/><path transform="translate(29.723 12.77) scale(.013672 -.013672)" d="m244 122q-15-18-34.5-38t-42-37-47-28.5-50.5-11.5q-53 0-53 51 0 21 17.5 55.5t45.5 72.5 62 73.5 68 59 62.5 29.5 46.5-17q0-27-4-54t-8-53.5-8-52.5-4-53q0-6 1.5-18.5t5-25 9.5-22 16-9.5q24 0 39.5 6t27 14.5 20 19.5 18 22 21.5 21 31 16q0 0 0-3t0-5q0-25-15-49.5t-38-43.5-51.5-30.5-55.5-11.5q-23 0-37 13t-22.5 31-12.5 39.5-8 39.5zm18 131q10 33 7.5 45t-14.5 9.5-31-17-41-35-44-45.5-41-47.5-31-40.5-15-26q-6-23-1.5-35t14-16.5 21-1.5 19.5 9q17 15 43 40.5t50.5 54.5 42.5 57.5 21 48.5z"/></svg>

<?xml version="1.0" encoding="utf-8" ?>
<svg baseProfile="tiny" height="100%" version="1.2" width="100%" xmlns="http://www.w3.org/2000/svg" xmlns:ev="http://www.w3.org/2001/xml-events" xmlns:xlink="http://www.w3.org/1999/xlink"><defs /><g><path d="M175 83Q175 119 196.0 156.0Q217 193 249.5 230.5Q282 268 319.0 306.0Q356 344 388.5 383.5Q421 423 442.0 463.0Q463 503 463 544Q463 573 448.0 588.5Q433 604 410.5 610.5Q388 617 362.0 618.0Q336 619 314 619Q296 619 274.5 618.0Q253 617 231.0 614.0Q209 611 187.5 606.0Q166 601 148 594Q146 592 138.5 588.0Q131 584 122.0 579.5Q113 575 105.5 571.5Q98 568 96 568Q95 567 91.0 566.5Q87 566 81.5 565.5Q76 565 70.0 565.0Q64 565 61 565Q59 565 54.0 565.0Q49 565 43.5 565.5Q38 566 33.0 566.5Q28 567 26 568Q19 570 18.0 574.5Q17 579 17 584Q17 598 37.0 608.5Q57 619 88.0 626.5Q119 634 156.5 639.5Q194 645 229.5 648.5Q265 652 292.5 653.5Q320 655 332 655Q363 655 394.0 650.0Q425 645 450.0 632.0Q475 619 491.0 596.0Q507 573 507 536Q507 493 485.5 453.0Q464 413 432.0 375.0Q400 337 362.0 299.5Q324 262 291.5 226.0Q259 190 238.0 154.5Q217 119 217 83Q217 70 218.5 59.5Q220 49 235 43Q238 43 242.0 43.0Q246 43 251.0 43.0Q256 43 260.5 43.0Q265 43 266 43Q283 43 295.0 44.0Q307 45 317.5 47.5Q328 50 341.5 55.5Q355 61 376 70Q382 73 397.0 79.5Q412 86 431.5 94.5Q451 103 471.5 112.5Q492 122 511.0 130.5Q530 139 545.0 146.5Q560 154 568 157H604Q604 151 601.5 146.5Q599 142 594 139L323 8Q322 8 315.5 7.0Q309 6 300.5 4.5Q292 3 284.0 2.0Q276 1 271 0H257Q219 0 197.0 22.0Q175 44 175 83Z" transform="translate(0.0, 72) scale(0.0703125, -0.0703125)" /><path d="M26 125Q19 121 15.0 123.0Q11 125 9.5 129.0Q8 133 7.5 138.5Q7 144 7 146Q7 166 12.0 170.5Q17 175 25.0 176.5Q33 178 42.0 181.0Q51 184 59 200Q71 225 80.5 252.5Q90 280 104.0 304.0Q118 328 139.5 343.0Q161 358 199 358Q205 358 212.5 357.0Q220 356 226.5 353.5Q233 351 237.5 345.5Q242 340 242 331Q242 310 231.5 293.5Q221 277 205.5 263.5Q190 250 172.0 238.0Q154 226 139.0 215.0Q124 204 113.5 192.0Q103 180 103 166V70Q103 59 111.5 52.5Q120 46 131.0 42.0Q142 38 154.0 36.0Q166 34 172 34Q196 34 220.0 42.5Q244 51 266.5 64.0Q289 77 309.0 92.5Q329 108 347 122Q353 127 357.5 132.5Q362 138 366.5 143.0Q371 148 376.5 151.5Q382 155 391 157Q391 156 391.0 153.0Q391 150 391 148Q391 140 389.5 134.0Q388 128 382 122Q360 97 335.0 75.0Q310 53 282.0 36.0Q254 19 223.0 9.0Q192 -1 157 -1Q122 -1 103.0 9.0Q84 19 73.5 38.0Q63 57 59.0 83.0Q55 109 50 139ZM155 280Q155 282 151.5 279.5Q148 277 143.5 273.0Q139 269 137.0 265.5Q135 262 137 262Q142 261 149.0 268.0Q156 275 155 280Z" transform="translate(43.5234375, 72) scale(0.0703125, -0.0703125)" /><path d="M-55 -454Q-61 -416 -65.0 -374.0Q-69 -332 -72 -277Q-72 -268 -71.5 -247.5Q-71 -227 -69.0 -201.5Q-67 -176 -63.0 -148.5Q-59 -121 -53.5 -96.5Q-48 -72 -40.0 -53.5Q-32 -35 -20 -27V-35Q-20 -65 -24.5 -94.0Q-29 -123 -33.5 -152.5Q-38 -182 -42.5 -212.0Q-47 -242 -47 -272Q-47 -284 -45.5 -306.5Q-44 -329 -41.0 -356.0Q-38 -383 -32.0 -411.5Q-26 -440 -16.0 -463.0Q-6 -486 8.0 -500.5Q22 -515 41 -515Q67 -515 93.5 -498.0Q120 -481 144.5 -453.5Q169 -426 190.0 -391.5Q211 -357 229.0 -322.0Q247 -287 259.0 -255.5Q271 -224 277 -201Q283 -168 289.0 -131.5Q295 -95 300.5 -56.5Q306 -18 309.5 20.0Q313 58 313 96Q313 97 313.0 102.0Q313 107 312.5 112.5Q312 118 312.0 123.0Q312 128 312 130Q298 115 282.5 96.5Q267 78 249.0 62.0Q231 46 210.5 35.0Q190 24 166 24Q147 24 133.5 36.0Q120 48 111.5 65.5Q103 83 98.5 103.0Q94 123 94 139Q93 148 92.0 171.5Q91 195 89.5 221.5Q88 248 86.5 271.5Q85 295 85 305L76 314Q69 310 58.0 302.0Q47 294 34.5 287.0Q22 280 10.0 274.5Q-2 269 -11 269Q-23 269 -30.5 277.5Q-38 286 -38 296Q-38 301 -28.5 310.0Q-19 319 -4.5 328.5Q10 338 28.5 348.0Q47 358 64.0 366.0Q81 374 95.0 379.5Q109 385 115 385Q119 385 128.0 384.0Q137 383 137 375V139Q137 133 139.0 121.5Q141 110 145.0 98.0Q149 86 156.0 77.5Q163 69 172 69Q177 69 185.0 72.0Q193 75 200.5 79.0Q208 83 214.0 87.5Q220 92 224 96Q258 126 286.5 163.0Q315 200 329 244Q330 247 332.5 257.5Q335 268 337.5 280.5Q340 293 343.0 304.5Q346 316 346 322Q347 329 347.5 338.0Q348 347 350.0 355.5Q352 364 357.0 370.0Q362 376 373 376Q388 376 389.5 367.0Q391 358 391 346Q391 333 389.0 320.0Q387 307 384.5 294.5Q382 282 381.0 269.5Q380 257 382 244Q371 56 335.5 -92.0Q300 -240 251.5 -341.5Q203 -443 149.5 -495.0Q96 -547 49 -542Q32 -542 15.5 -534.5Q-1 -527 -15.0 -514.0Q-29 -501 -39.5 -485.5Q-50 -470 -55 -454Z" transform="translate(68.6953125, 72) scale(0.0703125, -0.0703125)" /><path d="M244 122Q229 104 209.5 84.0Q190 64 167.5 47.0Q145 30 120.5 18.5Q96 7 70 7Q17 7 17 58Q17 79 34.5 113.5Q52 148 80.0 186.0Q108 224 142.0 259.5Q176 295 210.0 318.5Q244 342 272.5 348.0Q301 354 319 331Q319 304 315.0 277.0Q311 250 307.0 223.5Q303 197 299.0 171.0Q295 145 295 118Q295 112 296.5 99.5Q298 87 301.5 74.5Q305 62 311.0 52.5Q317 43 327 43Q351 43 366.5 49.0Q382 55 393.5 63.5Q405 72 413.5 83.0Q422 94 431.5 105.0Q441 116 453.0 126.0Q465 136 484 142Q484 142 484.0 139.0Q484 136 484 134Q484 109 469.0 84.5Q454 60 431.0 41.0Q408 22 379.5 10.5Q351 -1 324 -1Q301 -1 287.0 12.0Q273 25 264.5 43.0Q256 61 252.0 82.5Q248 104 244 122ZM262 253Q272 286 269.5 298.0Q267 310 255.0 307.5Q243 305 224.0 290.5Q205 276 183.0 255.5Q161 235 139.0 210.0Q117 185 98.0 162.5Q79 140 67.0 122.0Q55 104 52 96Q46 73 50.5 61.0Q55 49 64.5 44.5Q74 40 85.5 43.0Q97 46 105 52Q122 67 148.0 92.5Q174 118 198.5 147.0Q223 176 241.0 204.5Q259 233 262 253Z" transform="translate(98.015625, 72) scale(0.0703125, -0.0703125)" /><path d="M78 61Q59 61 46.0 73.0Q33 85 24.5 102.0Q16 119 11.5 138.0Q7 157 7 171Q7 202 18.5 235.5Q30 269 49.5 299.0Q69 329 94.5 353.5Q120 378 148 392Q160 398 169.5 398.5Q179 399 186.0 399.5Q193 400 196.5 405.5Q200 411 200 427V594Q200 602 209.0 610.5Q218 619 226 619Q231 619 234.5 614.5Q238 610 240.0 604.0Q242 598 243.0 591.0Q244 584 244 581Q244 468 241.0 358.5Q238 249 238 133Q246 133 254.0 136.0Q262 139 271.0 143.0Q280 147 288.5 151.0Q297 155 305 157Q305 156 305.5 153.0Q306 150 306 148Q306 134 296.5 125.5Q287 117 274.5 110.0Q262 103 250.5 96.0Q239 89 235 78Q234 76 233.0 64.0Q232 52 229.0 37.0Q226 22 220.0 10.5Q214 -1 205 -1Q191 -1 186.5 7.0Q182 15 183.0 26.0Q184 37 186.5 47.0Q189 57 189 61ZM42 171Q42 138 63.0 116.5Q84 95 117 95Q124 95 133.5 95.0Q143 95 153.0 96.5Q163 98 171.0 102.0Q179 106 183 114Q181 141 182.5 165.5Q184 190 186.0 214.5Q188 239 190.0 263.5Q192 288 192 315Q192 327 187.5 334.0Q183 341 170 341Q143 341 119.5 323.5Q96 306 78.5 279.5Q61 253 51.5 223.5Q42 194 42 171Z" transform="translate(130.21875, 72) scale(0.0703125, -0.0703125)" /><path d="M244 122Q229 104 209.5 84.0Q190 64 167.5 47.0Q145 30 120.5 18.5Q96 7 70 7Q17 7 17 58Q17 79 34.5 113.5Q52 148 80.0 186.0Q108 224 142.0 259.5Q176 295 210.0 318.5Q244 342 272.5 348.0Q301 354 319 331Q319 304 315.0 277.0Q311 250 307.0 223.5Q303 197 299.0 171.0Q295 145 295 118Q295 112 296.5 99.5Q298 87 301.5 74.5Q305 62 311.0 52.5Q317 43 327 43Q351 43 366.5 49.0Q382 55 393.5 63.5Q405 72 413.5 83.0Q422 94 431.5 105.0Q441 116 453.0 126.0Q465 136 484 142Q484 142 484.0 139.0Q484 136 484 134Q484 109 469.0 84.5Q454 60 431.0 41.0Q408 22 379.5 10.5Q351 -1 324 -1Q301 -1 287.0 12.0Q273 25 264.5 43.0Q256 61 252.0 82.5Q248 104 244 122ZM262 253Q272 286 269.5 298.0Q267 310 255.0 307.5Q243 305 224.0 290.5Q205 276 183.0 255.5Q161 235 139.0 210.0Q117 185 98.0 162.5Q79 140 67.0 122.0Q55 104 52 96Q46 73 50.5 61.0Q55 49 64.5 44.5Q74 40 85.5 43.0Q97 46 105 52Q122 67 148.0 92.5Q174 118 198.5 147.0Q223 176 241.0 204.5Q259 233 262 253Z" transform="translate(152.859375, 72) scale(0.0703125, -0.0703125)" /></g></svg>
